X: 1933
T: Arrane Ny Blieh
R: reel
M: 4/4
K: Gmajor
dc|B2d2B2d2|B2d2Ad2c|
B2d2B2d2|B2d2A d d c|
B2d2B2d2|c2B2HA2HG A|
B B B B D2 D D|
E E E E A2 G A|
B2d2B2G2|E2D3/2 D/ E G3-|G4z||

